X: 14285
T: Gaffo's Ball
R: reel
M: 4/4
K: Amajor
|:f|ecBc A3f|ecBA FAEf|ecBA FAEA|FAec cBBf|
fecB ceBc|BAFE FABc|BAFE FAEA|FEec BAA:|
|:e|c~e3 ecea|f2ag fee2|f3e cefe|feAB cBBe|
c~e3 ecea|fdge a2ga|fecB cBBA|FEec BAA:|

